X:6874
T:Harvest Home Hornpipe. BF13.012
M:2/2
L:1/8
Q:160
S:J.Lishman()MS,c1825,Lakes,Browne Coll.
R:Hornpipe
O:England
A:Lakes
Z:vmp.Cherri Graebe.
K:D major
(FE)|DAFA DAFA|defe dcBA|eAfB gBfB|edcB AGFE|!
DAFA DAFA|defe dcBA|eAfB gBec|d2g2d2:|!
|:f2|eAAA fBBB|gBBB aBBB|eAfB gBfB|edcB AGFE|!
Addd cdec|Addd cdec|dfed cABc|"!"d2g2d2 ||
W:Last bar missing from ms. CGP. |]
